X:237
T:Woodland Revels
C:Trad
N:"Australian learnt from Graeme Smith"
M:4/4
L:1/8
K:G
E3c B4|E3c B4|c2c2e2c2|B3 c BAGF|
E3c B4|E3c B4|A2B2c2^c2|d4D4|
E3c B4|E3c B4|c2c2e2c2|B4 B4|
c2c2B4|c2c2B4|B2Bc BA GF|E4D4||
GBde d4|GBde d4|B2B2c2B2|A2e2e4|
A3B c3 B|A3B c3 B|A2c2B2A2|G2e2d4|
GBde d4|GBde d4|B2B2c2B2|A2e2e4|
e2c2e2c2|d2B2d3 d|dc BA GF GA|B2d2g2fe||
K:D
d4d2cd|e2d2B2G2|E G2E G2A2|B6 B2|
d4d2cd|e2d2B2G2|E A2E A2B2|A2F2E2D2|
d4d2cd|e2d2B2G2|E G2E G2A2|B6 Bd|
e3 e3 fe|d2B2d4|e4f4|g8|]
